X: 1080
T: Where would coy Aminta run?
%R: march, reel
B: Henry Playford "Apollo's Banquet", London 1687 (5th Edition)
F: https://archive.org/details/apollosbanquetco01rugg
Z: 2017 John Chambers <jc:trillian.mit.edu>
M: C|
L: 1/8
K: D
% - - - - - - - - - -
|:\
g3d B2(AG) | (cd)e2 A4 | A2B>c d3d | edcB A2G2 | B3c d3d | g2(fe) f3f | (gf)(ed) ^c2BA | d3e e2d2 :|
|: \
A3B c2c2 | cB2c B4 | B3B e3f | g2(fe) e4 | g3g B2B2 | d3e A2A2 | A3B c3B | (cB)(AG) A2(GF) | B2AB G2A2 |
A3B B4 | ^d3d e2e2 | cBAB c4 | ^c3c d2ef | (gf)(ed) d4 | g3d e2(ed) | c3B A4 | d3d e2dc | A3G G4 |]
% - - - - - - - - - -

%%sep 1 1 500
%%sep 1 1 500

